X:1
T:Title
%%score { ( 1 3 ) | ( 2 4 ) }
L:1/8
Q:1/4=94
M:4/4
K:D
V:1 treble nm="Grand Piano"
V:3 treble 
V:2 bass 
V:4 bass 
V:1
 FFFG FEDF | [FA]2 [Fd]2 [Fd]4 | dcdB [FA]FDF | [DF]2 [DE]2 [CE]4 | FFFG FEDF | [FA]2 [Fd]2 [Fd]4 | %6
w: Will~H.~Garey * * * * * * *||||||
 BcdB [DFA][A,DF][^G,D][G,DE] | D-[DA]C-[CF] D4 | A4[K:bass][K:treble] z4 | [CE]3 [DF] [EG]4 | %10
w: ||||
 [EG]4 z4 | [DF]4 z4 | z A,A,A EFGA | B6 z2 | [Fd][Ec][Fd][FA] [Ac]BAG | F2 [CE]2 D4 |] %16
w: ||||||
V:2
 [D,A,D][D,A,D][D,A,D][D,B,D] [D,A,D][D,G,A,][D,F,A,][D,A,D] | [D,D]2 [D,A,]2 [D,A,]4 | %2
 [G,B,G][G,^A,G][G,B,G][G,DG][K:bass] [D,D][D,=A,D][F,A,][D,A,D] | [B,,^G,]2 [E,G,]2 [A,,A,]4 | %4
 [D,A,D][D,A,D][D,A,D][D,B,D] [D,A,D][D,G,A,][D,F,A,][D,A,D] | [D,D]2 [D,D]2 [D,D]4 | %6
 [G,DG][G,CG][G,B,G][G,DG][K:bass] D,D,B,,B,, | z F, z A, [D,F,]4 | %8
 D-[D,D-][D,D][D,A,D] [G,D][F,A,D][E,A,C][D,A,D] | [A,,A,]2 [A,,A,][A,,A,] [A,,A,]4 | %10
 [A,,A,]A,,A,,[A,,A,] [A,,A,][A,,A,][A,,A,][A,,A,] | [D,A,]2 z [D,A,] [D,D]4 | %12
 [D,A,]D,D,[D,F,D] [D,G,D][D,A,D][E,A,D][F,A,D] | D2- [G,D][F,A,] [E,G,]2 [A,,A,]2 | %14
 [D,A,][D,A,][D,A,][D,D][K:treble] [G,D][G,DG][G,B,F][G,B,E] | [A,D]2[K:bass] [A,,G,]2 [D,F,]4 |] %16
V:3
 x8 | x8 | x8 | x8 | x8 | x8 | x8 | .[A,F]2 .[G,E]2 z4 | z[K:bass] F,F,[K:treble]F BAGF | x8 | %10
 z A,A,[CE] [Ec][GB][FA][EG] | z2 [D,A,][EG] [FA]4 | [DF]4 z4 | z2 B,^D E2 [Gc]2 | x8 | x8 |] %16
V:4
 x8 | x8 | x4[K:bass] x4 | x8 | x8 | x8 | x4[K:bass] x4 | A,,2 A,,2 z4 | .[D,F,]2 z2 z4 | x8 | x8 | %11
 x8 | x8 | G,2 z2 z4 | x4[K:treble] x4 | x2[K:bass] x6 |] %16

